X:1
T:Jædervise
T:Jædervise
T:Edvard Grieg
T:Jonas Dahl
T:Peters
T:Peters
T:Peters
T:Peters
C:Edvard Grieg
Z:Jonas Dahl
Z:Peters
%%score [ 1 2 3 4 ]
L:1/8
Q:1/4=104
M:2/4
K:C
V:1 treble-8 nm="Tenor"
V:2 treble-8 nm="Tenor"
V:3 bass nm="Baryton"
V:4 bass nm="Bass"
V:1
!ff!"^Allegro marcato\n" .a2 .^f2 |!p!!<(! a4-!<)! | a2 z2 | .e .^d d2 | .c .B B2 | %5
w: Ve- stan-|vejr!||Ve- stan- vejr!|Ve- stan- vejr!|
 A3/2 B/ c B/ A/ | !>!.B .c c2 | .g .f f f/ f/ | .e .d d2 | c3/2 d/"^rit." e d/!<(! c/!<)! | %10
w: Lindt og lyst o- ver|hei- lan Jær.|Barn i My- ren på|Æg- ge- rov,|Jen- te- lat- ter bag|
!<(! d e!<)!!f! !fermata!e2 |!pp!"^a tempo" .e .e d d/ d/ | !>!.c .c B2 | %13
w: Na- bos Hov,|Hol og Hej som en|Ro- sen- vej|
 (!>!e/g/) (e/g/) d d/ d/ | (!>!c/e/) (c/e/) B2 | !>!A3/2 A/ ^G G/ G/ | .c .c B2 | %17
w: Sol _ på _ Sand- dy- ner|lan- * gan _ Lei,|Lak- se- ka- rar ved|hver en Os,|
"^cresc. e poco a poco rit." !>!d3/2 d/ ^c c/ c/ | .g .g ^f2 |!f! !>!a3 ^g |"_dim." e2 c d | %21
w: langt på Ha- vet en|en- som Lods,|Langt på|Ha- vet en|
 e2 c2 |!p! A4- | A2 z2 |!ff!"^a tempo" .a2 .^f2 |!p!!<(! !fermata!a4-!<)! | a2 z2 | .e .^d d2 | %28
w: en- som|Lods.|_|Ve- stan-|vejr!|_|Ve- stan- vejr!|
 .c .B B2 | A3/2 B/ c B/ A/ | !>!.B .c c2 | .g .^f f f/ f/ | e d d2 | c3/2 d/ e"_rit." d/ c/ | %34
w: Ve- stan- vejr!|Skaf- te- stöv- ler og|O- lie- klær,|vas- ne Våt- ter og|gul Syd- vest,|ud med Led- det en|
!<(! d e!<)!!f! !fermata!e2 |!pp!"^a tempo" !>!.e e/ e/ d2 | c c/ c/ B2 | %37
w: vas- blank Hest.|U- fy- se- vådt,|rus- kje og råt,|
 (!>!e/g/) (e/g/) d d/ d/ | (!>!c/e/) (c/e/) B2 | !>!.A3/2 A/ ^G G/ G/ | .c .c B2 | %41
w: svart _ og _ di- sent med|Dag _ og _ Not,|Ha- gel- sku- rer og|Ren- ne- fog,|
"^cresc. e poco a poco rit." !>!d3/2 d/ ^c c/ c/ | .g !>!g ^f2 |!f! a3 ^g | e2"_dim." c d | e2 c2 | %46
w: men bag Ov- nen en|Ter- re- krog,|men bag|Ov- nen en|Ter- re-|
!p! A4- | A2 z2 |!ff!"^a tempo" .a2 .^f2 |!p!!<(! !fermata!a4-!<)! | a2 z2 | .e .^d d2 | .c .B B2 | %53
w: krog.|_|Ve- stan-|vejr!|_|Ve- stan- vejr!|Ve- stan- vejr!|
 A3/2 B/ c B/ A/ | !>!.B .c c2 | .g .^f f f/ f/ | .e .d d2 | c3/2 d/ e"^rit." d/ c/ | %58
w: Him- mel- sprøjt o- ver|al- le Skjær,|Him- mel- hav un- der|Bur og Brag|dum- pe Drøm- me om|
!<(! d e!<)!!f! !fermata!e2 |!pp! !>!.e .e d2 | !>!.c .c B2 | (!>!e/g/) e/ g/ d d/ d/ | %62
w: Dom- me- dag.|Ra- ske Råd,|Red- nings- dåd,|Ber- * ge- des Lov- sang og|
 (!>!c/e/) (c/e/) B2 | !>!A3/2 A/ ^G G/ G/ | .c .c B2 | %65
w: En- * kers _ Gråd.|Ta- re- dyn- ger i|Fug- lå- vig,|
 !>!d3/2"^cresc. e poco a poco rit." d/ ^c c/ c/ | .g .g ^f2 |!f! !>!a3 ^g | e2"^dim." c d | %69
w: Rev og Rau- ner på|Rek- ster rig,|Rev og|Rau- ner på|
 e2 c2 |!p! A4- | A2 z2 |!ff!"^a tempo" .a2 .^f2 |!p!!<(! a4-!<)! | a2 z2 |] %75
w: Rek- ster|rig.|_|Ve- stan-|vejr!|_|
V:2
!ff! .e2 .^d2 |!p!!<(! e4-!<)! | e2 z2 | .c .B B2 | .A .^F F2 | A3/2 B/ c B/ A/ | !>!.B .c c2 | %7
w: Ve- stan-|vejr!||Ve- stan- vejr!|Ve- stan- vejr!|Lindt og lyst o- ver|hei- lan Jær.|
 .e .d d d/ d/ | .c .A A2 | c3/2 d/ e d/ c/ |!<(! d e!<)!!f! !fermata!B2 |!pp! .c .c B B/ B/ | %12
w: Barn i My- ren på|Æg- ge- rov,|Jen- te- lat- ter bag|Na- bos Hov,|Hol og Hej som en|
 !>!.A .A G2 | !>!.c .c B B/ B/ | !>!.A .A G2 | !>!F3/2 F/ F F/ F/ | .^G .G =G2 | %17
w: Ro- sen- vej|Sol på Sand- dy- ner|lan- gan Lei,|Lak- se- ka- rar ved|hver en Os,|
"^cresc. e poco a poco rit." !>!^G3/2 G/ A A/ A/ | .^c .c d2 |!f! !>!f3 e | c2 A B | c2 ^G2 | %22
w: langt på Ha- vet en|en- som Lods,|Langt på|Ha- vet en|en- som|
!p! E4- | E2 z2 |!ff! .e2 .^d2 |!p!!<(! !fermata!e4-!<)! | e2 z2 | .c .B B2 | .A .^F F2 | %29
w: Lods.|_|Ve- stan-|vejr!|_|Ve- stan- vejr!|Ve- stan- vejr!|
 A3/2 B/ c B/ A/ | !>!.B .c c2 | .e .d d d/ d/ | c A A2 | c3/2 d/ e d/ c/ | %34
w: Skaf- te- stöv- ler og|O- lie- klær,|vas- ne Våt- ter og|gul Syd- vest,|ud med Led- det en|
!<(! d e!<)!!f! !fermata!B2 |!pp! !>!.c c/ c/ B2 | A A/ A/ G2 | !>!.c .c B B/ B/ | !>!.A .A G2 | %39
w: vas- blank Hest.|U- fy- se- vådt,|rus- kje og råt,|svart og di- sent med|Dag og Not,|
 !>!.F3/2 F/ F F/ F/ | .^G .G G2 |"^cresc. e poco a poco rit." !>!^G3/2 G/ A A/ A/ | .^c .c d2 | %43
w: Ha- gel- sku- rer og|Ren- ne- fog,|men bag Ov- nen en|Ter- re- krog,|
!f! f3 e | c2 A B | c2 ^G2 |!p! E4- | E2 z2 |!ff! .e2 .^d2 |!p!!<(! !fermata!e4-!<)! | e2 z2 | %51
w: men bag|Ov- nen en|Ter- re-|krog.|_|Ve- stan-|vejr!|_|
 .c .B B2 | .A .^F F2 | A3/2 B/ c B/ A/ | !>!.B .c c2 | .d .d d d/ d/ | .c .A A2 | %57
w: Ve- stan- vejr!|Ve- stan- vejr!|Him- mel- sprøjt o- ver|al- le Skjær,|Him- mel- hav un- der|Bur og Brag|
 c3/2 d/ e d/ c/ |!<(! d e!<)!!f! !fermata!B2 |!pp! !>!.c .c B2 | !>!.A .A G2 | %61
w: dum- pe Drøm- me om|Dom- me- dag.|Ra- ske Råd,|Red- nings- dåd,|
 !>!.c c/ c/ B B/ B/ | !>!.A A G2 | !>!F3/2 F/ F F/ F/ | .^G .G G2 | !>!^G3/2 G/ A A/ A/ | %66
w: Ber- ge- des Lov- sang og|En- kers Gråd.|Ta- re- dyn- ger i|Fug- lå- vig,|Rev og Rau- ner på|
 .^c .c d2 |!f! !>!f3 e | c2"^dim." A B | c2 ^G2 | E4- | E2 z2 |!ff! .e2 .^d2 |!p!!<(! e4-!<)! | %74
w: Rek- ster rig,|Rev og|Rau- ner på|Rek- ster|rig.|_|Ve- stan-|vejr!|
 e2 z2 |] %75
w: _|
V:3
!ff! .C2 .B,2 |!p!!<(! C4-!<)! | C2 z2 | .A, .^F, F,2 | .E, .^D, D,2 | A,,3/2 B,,/ C, B,,/ A,,/ | %6
w: Ve- stan-|vejr!||Ve- stan- vejr!|Ve- stan- vejr!|Lindt og lyst o- ver|
 !>!.B,, .C, C,2 | .C .C, C, C,/ C,/ | .G, .^F, F,2 | C,3/2 D,/ E, D,/ C,/ | %10
w: hei- lan Jær.|Barn i My- ren på|Æg- ge- rov,|Jen- te- lat- ter bag|
!<(! D, E,!<)!!f! !fermata!G,2 |!pp! .G, .G, G, G,/ G,/ | !>!.E, .E, E,2 | !>!.G, .G, G, G,/ G,/ | %14
w: Na- bos Hov,|Hol og Hej som en|Ro- sen- vej|Sol på Sand- dy- ner|
 !>!.E, .E, E,2 | !>!E,3/2 E,/ D, D,/ D,/ | .F, .F, F,2 | %17
w: lan- gan Lei,|Lak- se- ka- rar ved|hver en Os,|
"^cresc. e poco a poco rit." !>!F,3/2 F,/ E, E,/ E,/ | ._B, .B, A,2 |!f! !>!C3 B, | A,2 A, A, | %21
w: langt på Ha- vet en|en- som Lods,|Langt på|Ha- vet en|
 G,2 E,2 |!p! C,4- | C,2 z2 |!ff! .C2 .B,2 |!p!!<(! !fermata!C4-!<)! | C2 z2 | .A, .^F, F,2 | %28
w: en- som|Lods.|_|Ve- stan-|vejr!|_|Ve- stan- vejr!|
 .E, .^D, D,2 | A,,3/2 B,,/ C, B,,/ A,,/ | !>!.B,, .C, C,2 | .C .A, A, A,/ A,/ | G, ^F, F,2 | %33
w: Ve- stan- vejr!|Skaf- te- stöv- ler og|O- lie- klær,|vas- ne Våt- ter og|gul Syd- vest,|
 C,3/2 D,/ E, D,/ C,/ |!<(! D, E,!<)!!f! !fermata!G,2 |!pp! !>!.G, G,/ G,/ G,2 | E, E,/ E,/ E,2 | %37
w: ud med Led- det en|vas- blank Hest.|U- fy- se- vådt,|rus- kje og råt,|
 !>!.G, .G, G, G,/ G,/ | !>!.E, .E, E,2 | !>!.E,3/2 E,/ D, D,/ D,/ | .F, .F, F,2 | %41
w: svart og di- sent med|Dag og Not,|Ha- gel- sku- rer og|Ren- ne- fog,|
"^cresc. e poco a poco rit." !>!F,3/2 F,/ E, E,/ E,/ | ._B, .B, A,2 |!f! C3 B, | A,2 A, A, | %45
w: men bag Ov- nen en|Ter- re- krog,|men bag|Ov- nen en|
 G,2 E,2 |!p! C,4- | C,2 z2 |!ff! .C2 .B,2 |!p!!<(! !fermata!C4-!<)! | C2 z2 | .A, .^F, F,2 | %52
w: Ter- re-|krog.|_|Ve- stan-|vejr!|_|Ve- stan- vejr!|
 .E, .^D, D,2 | A,,3/2 B,,/ C, B,,/ A,,/ | !>!.B,, .C, C,2 | .C .A, A, A,/ A,/ | .G, .^F, F,2 | %57
w: Ve- stan- vejr!|Him- mel- sprøjt o- ver|al- le Skjær,|Him- mel- hav un- der|Bur og Brag|
 C,3/2 D,/ E, D,/ C,/ |!<(! D, E,!<)!!f! !fermata!G,2 |!pp! !>!.G, .G, G,2 | !>!.E, .E, E,2 | %61
w: dum- pe Drøm- me om|Dom- me- dag.|Ra- ske Råd,|Red- nings- dåd,|
 !>!.G, G,/ G,/ G, G,/ G,/ | !>!.E, E, E,2 | !>!E,3/2 E,/ D, D,/ D,/ | .F, .F, F,2 | %65
w: Ber- ge- des Lov- sang og|En- kers Gråd.|Ta- re- dyn- ger i|Fug- lå- vig,|
 !>!F,3/2 F,/ E, E,/ E,/ | ._B, .B, A,2 |!f! !>!C3 B, | A,2"^dim." A, A, | G,2 E,2 |!p! C,4- | %71
w: Rev og Rau- ner på|Rek- ster rig,|Rev og|Rau- ner på|Rek- ster|rig.|
 C,2 z2 |!ff! .C2 .B,2 |!p!!<(! C4-!<)! | C2 z2 |] %75
w: _|Ve- stan-|vejr!|_|
V:4
!ff! .A,2 .A,2 |!p!!<(! A,4-!<)! | A,2 z2 | .A, .A,, A,,2 | .A, .A,, A,,2 | %5
w: Ve- stan-|vejr!||Ve- stan- vejr!|Ve- stan- vejr!|
 A,,3/2 B,,/ C, B,,/ A,,/ | !>!.B,, .C, C,2 | .C .C, C, C,/ C,/ | .C .C, C,2 | %9
w: Lindt og lyst o- ver|hei- lan Jær.|Barn i My- ren på|Æg- ge- rov,|
 C,3/2 D,/ E, D,/ C,/ |!<(! D, E,!<)!!f! !fermata!E,2 |!pp! .C, .E, G, G,/ G,/ | !>!.A,, .C, E,2 | %13
w: Jen- te- lat- ter bag|Na- bos Hov,|Hol og Hej som en|Ro- sen- vej|
 !>!.C, .E, G, G,/ G,/ | !>!.A,, .C, E,2 | !>!C,3/2 C,/ B,, B,,/ B,,/ | .E, .E, D,2 | %17
w: Sol på Sand- dy- ner|lan- gan Lei,|Lak- se- ka- rar ved|hver en Os,|
"^cresc. e poco a poco rit." !>!F,3/2 F,/ E, E,/ E,/ | ._B, .B, A,2 |!f! !>!D,3 E, | A,2 G, F, | %21
w: langt på Ha- vet en|en- som Lods,|Langt på|Ha- vet en|
 (C,D,) E,2 |!p! A,,4- | A,,2 z2 |!ff! .A,2 .A,2 |!p!!<(! !fermata!A,4-!<)! | A,2 z2 | %27
w: en- * som|Lods.|_|Ve- stan-|vejr!|_|
 .A, .A,, A,,2 | .A, .A,, A,,2 | A,,3/2 B,,/ C, B,,/ A,,/ | !>!.B,, .C, C,2 | .C .C, C, C,/ C,/ | %32
w: Ve- stan- vejr!|Ve- stan- vejr!|Skaf- te- stöv- ler og|O- lie- klær,|vas- ne Våt- ter og|
 C C, C,2 | C,3/2 D,/ E, D,/ C,/ |!<(! D, E,!<)!!f! !fermata!E,2 |!pp! !>!.C, E,/ E,/ G,2 | %36
w: gul Syd- vest,|ud med Led- det en|vas- blank Hest.|U- fy- se- vådt,|
 A,, C,/ C,/ E,2 | !>!.C, .E, G, G,/ G,/ | !>!.A,, .C, E,2 | !>!.C,3/2 C,/ B,, B,,/ B,,/ | %40
w: rus- kje og råt,|svart og di- sent med|Dag og Not,|Ha- gel- sku- rer og|
 .E, .E, D,2 |"^cresc. e poco a poco rit." !>!F,3/2 F,/ E, E,/ E,/ | ._B, .B, A,2 |!f! D,3 E, | %44
w: Ren- ne- fog,|men bag Ov- nen en|Ter- re- krog,|men bag|
 A,2 G, F, | (C,D,) E,2 |!p! A,,4- | A,,2 z2 |!ff! .A,2 .A,2 |!p!!<(! !fermata!A,4-!<)! | A,2 z2 | %51
w: Ov- nen en|Ter- * re-|krog.|_|Ve- stan-|vejr!|_|
 .A, .A,, A,,2 | .A, .A,, A,,2 | A,,3/2 B,,/ C, B,,/ A,,/ | !>!.B,, .C, C,2 | .C .C, C, C,/ C,/ | %56
w: Ve- stan- vejr!|Ve- stan- vejr!|Him- mel- sprøjt o- ver|al- le Skjær,|Him- mel- hav un- der|
 .C .C, C,2 | C,3/2 D,/ E, D,/ C,/ |!<(! D, E,!<)!!f! !fermata!E,2 |!pp! !>!.C, .E, G,2 | %60
w: Bur og Brag|dum- pe Drøm- me om|Dom- me- dag.|Ra- ske Råd,|
 !>!.A,, .C, E,2 | !>!.C, E,/ E,/ G, G,/ G,/ | !>!.A,, C, E,2 | !>!C,3/2 C,/ B,, B,,/ B,,/ | %64
w: Red- nings- dåd,|Ber- ge- des Lov- sang og|En- kers Gråd.|Ta- re- dyn- ger i|
 .E, .E, D,2 | !>!F,3/2 F,/ E, E,/ E,/ | ._B, .B, A,2 |!f! !>!D,3 E, | A,2"^dim." G, F, | %69
w: Fug- lå- vig,|Rev og Rau- ner på|Rek- ster rig,|Rev og|Rau- ner på|
 (C,D,) E,2 | A,,4- | A,,2 z2 |!ff! .A,2 .A,2 |!p!!<(! A,4-!<)! | A,2 z2 |] %75
w: Rek- * ster|rig.|_|Ve- stan-|vejr!|_|

